icon/cg/cloud.svg

<svg viewBox="0 0 24 24" fill="none" xmlns="http://www.w3.org/2000/svg" height="1em" width="1em">
  <path fill-rule="evenodd" clip-rule="evenodd" d="M14.738 19.9964C14.8186 19.9988 14.8994 20 14.9806 20C19.3989 20 22.9806 16.4183 22.9806 12C22.9806 7.58172 19.3989 4 14.9806 4C12.4542 4 10.2013 5.17108 8.73522 7H7.51941C3.92956 7 1.01941 9.91015 1.01941 13.5C1.01941 17.0899 3.92956 20 7.51941 20H14.5194C14.5926 20 14.6654 19.9988 14.738 19.9964ZM16.6913 17.721C19.0415 16.9522 20.9806 14.6815 20.9806 12C20.9806 8.68629 18.2943 6 14.9806 6C11.6669 6 8.98059 8.68629 8.98059 12H6.98059C6.98059 10.9391 7.1871 9.92643 7.56211 9H7.51941C5.03413 9 3.01941 11.0147 3.01941 13.5C3.01941 15.9853 5.03413 18 7.51941 18H14.5194C15.0691 18 15.9041 17.9014 16.6913 17.721Z" fill="currentColor"/>
</svg>

<svg width="24" height="24" fill="none" xmlns="http://www.w3.org/2000/svg"><path fill-rule="evenodd" clip-rule="evenodd" d="M14.738 19.996A8 8 0 1 0 8.735 7H7.52a6.5 6.5 0 0 0 0 13h7c.074 0 .146-.001.219-.004Zm1.953-2.275c2.35-.769 4.29-3.04 4.29-5.721a6 6 0 0 0-12 0h-2c0-1.06.206-2.074.581-3H7.52a4.5 4.5 0 1 0 0 9h7c.55 0 1.385-.099 2.172-.279Z" fill="currentColor"/></svg>
